X:1
T:A cradle song of the Blessed Virgin - Barnby
T:#
%%score [ ( 1 2 ) ( 3 4 ) ]
L:1/8
Q:1/4=120
M:6/8
K:F
V:1 treble nm="MusicXML Part"
V:2 treble 
V:3 bass nm="MusicXML Part"
V:4 bass 
V:1
"^A Cradle-song of the Blessed Virgin""^Tr. H. R. Bramley" A | A2 A c2 A | A3 G2 A | B2 B d2 c | %4
 B3 A2 A | =B2 B c2 A | (G7/4=B/4A) G2"^Joseph Barnby\n(1838-96)" G | e2 e d2 c | (c3 d3) | %9
 c3- c2 c | c2 A G2 F | F2 G A2 B | (G6 | F3- F2) z || A | A2 A c2 A | A3 G2 A | B2 B d2 c | %18
 B3 A2 A | =B2 B c2 A | (G7/4=B/4A) G2 G | e2 e d2 c | (c3 d3) | c3- c2 c | c2 A G2 F | F2 G A2 B | %26
 (G6 | F3- F2) z || A | A2 A c2 A | A3 G2 A | B2 B d2 c | B3 A2 A | =B2 B c2 A | (G7/4=B/4A) G2 G | %35
 e2 e d2 c | (c3 d3) | c3- c2 c | c2 A G2 F | F2 G A2 B | (G6 | F3- F2) z || A | A2 A c2 A | %44
 A3 G2 A | B2 B d2 c | B3 A2 A | =B2 B c2 A | (G7/4=B/4A) G2 G | e2 e d2 c | (c3 d3) | c3- c2 c | %52
 c2 A G2 F | F2 G A2 B | (G6 | F3- F2) z || A | A2 A c2 A | A3 G2 A | B2 B d2 c | B3 A2 A | %61
 =B2 B c2 A | (G7/4=B/4A) G2 G | e2 e d2 c | (c3 d3) | c3- c2 c | c2 A G2 F | F2 G A2 B | (G6 | %69
 F3- F2) |] %70
V:2
 F | F2 F F2 F | F3 F2 F | F2 F E2 E | E3 F2 F | F2 F F2 F | F3 F2 F | E2 E F2 ^F | (G3 F3) | %9
w: The|Vir- gin stills the|cry- ing Of|Je- sus sleep- less|ly- ing; And|sing- ing for his|plea- sure Thus|calls u- pon her|Trea足 *|
 E3- E2 E | F2 F _E2 E | D2 D D2 D | (D3 E3 | F3- F2) z || F | F2 F F2 F | F3 F2 F | F2 F E2 E | %18
w: sure, * My|dar- ling, do not|weep, My Je- su,|sleep! *||O|Lamb, my love in-|vit- ing, O|Star, my soul de-|
 E3 F2 F | F2 F F2 F | F3 F2 F | E2 E F2 ^F | (G3 F3) | E3- E2 E | F2 F _E2 E | D2 D D2 D | %26
w: light- ing, O|Flow'r of mine own|bear- ing, O|Je- wel past com-|par *|ing! * My|Dar- ling, do not|weep, My Je- su,|
 (D3 E3 | F3- F2) z || F | F2 F F2 F | F3 F2 F | F2 F E2 E | E3 F2 F | F2 F F2 F | F3 F2 F | %35
w: sleep! *||My|Child, of Might in-|dwell- ing, My|Sweet, all sweets ex-|cell- ing, Of|Bliss the Foun- tain|flow- ing, The|
 E2 E F2 ^F | (G3 F3) | E3- E2 E | F2 F _E2 E | D2 D D2 D | (D3 E3 | F3- F2) z || F | F2 F F2 F | %44
w: Day- spring e- ver|glow足 *|ing. * My|Dar- ling, do not|weep, My Je- su,|sleep! *||My|Joy, my Ex- ult-|
 F3 F2 F | F2 F E2 E | E3 F2 F | F2 F F2 F | F3 F2 F | E2 E F2 ^F | (G3 F3) | E3- E2 E | %52
w: a- tion, My|spi- rit's Con- so-|la- tion; My|Son, my Spouse, my|Bro- ther, O|list- en to thy|Mo足 *|ther. * My|
 F2 F _E2 E | D2 D D2 D | (D3 E3 | F3- F2) z || F | F2 F F2 F | F3 F2 F | F2 F E2 E | E3 F2 F | %61
w: Dar- ling, do not|weep, My Je- su,|sleep! *||Say,|wouldst thou heaven- ly|sweet- ness, Or|love of answ- ering|meet- ness? Or|
 F2 F F2 F | F3 F2 F | E2 E F2 ^F | (G3 F3) | E3- E2 E | F2 F _E2 E | D2 D D2 D | (D3 E3 | %69
w: is sweet mu- sic|want- ing? Ho!|An- gels raise your|chant足 *|ing! * My|Dar- ling, do not|weep, My Je- su,|sleep! *|
 F3- F2) |] %70
w: |
V:3
 C | C2 C A,2 C | D3 D2 D | D2 D B,2 C | (D2 C) C2 C | =B,2 B, A,2 C | (D2 C) =B,2 B, | %7
 C2 C D2 _E | (=E3 =B,3) | (C3 _B,2) B, | A,2 A, C2 C | C2 B, B,2 B, | (B,6 | A,3- A,2) z || C | %15
 C2 C A,2 C | D3 D2 D | D2 D B,2 C | (D2 C) C2 C | =B,2 B, A,2 C | (D2 C) =B,2 B, | C2 C D2 _E | %22
 (=E3 =B,3) | (C3 _B,2) B, | A,2 A, C2 C | C2 B, B,2 B, | (B,6 | A,3- A,2) z || C | C2 C A,2 C | %30
 D3 D2 D | D2 D B,2 C | (D2 C) C2 C | =B,2 B, A,2 C | (D2 C) =B,2 B, | C2 C D2 _E | (=E3 =B,3) | %37
 (C3 _B,2) B, | A,2 A, C2 C | C2 B, B,2 B, | (B,6 | A,3- A,2) z || C | C2 C A,2 C | D3 D2 D | %45
 D2 D B,2 C | (D2 C) C2 C | =B,2 B, A,2 C | (D2 C) =B,2 B, | C2 C D2 _E | (=E3 =B,3) | %51
 (C3 _B,2) B, | A,2 A, C2 C | C2 B, B,2 B, | (B,6 | A,3- A,2) z || C | C2 C A,2 C | D3 D2 D | %59
 D2 D B,2 C | (D2 C) C2 C | =B,2 B, A,2 C | (D2 C) =B,2 B, | C2 C D2 _E | (=E3 =B,3) | %65
 (C3 _B,2) B, | A,2 A, C2 C | C2 B, B,2 B, | (B,6 | A,3- A,2) |] %70
V:4
 F, | F,2 F, F,2 F, | B,3 B,2 A, | G,2 G, C,2 C, | F,3 F,2 E, | D,2 D, C,2 C, | %6
 (=B,,2 C,) D,2 G,, | C,2 C, A,,2 A,, | G,,6 | C,3- C,2 C, | F,2 F, A,,2 A,, | B,,2 B,, G,,2 G,, | %12
 (C,6 | F,3- F,2) z || F, | F,2 F, F,2 F, | B,3 B,2 A, | G,2 G, C,2 C, | F,3 F,2 E, | %19
 D,2 D, C,2 C, | (=B,,2 C,) D,2 G,, | C,2 C, A,,2 A,, | G,,6 | C,3- C,2 C, | F,2 F, A,,2 A,, | %25
 B,,2 B,, G,,2 G,, | (C,6 | F,3- F,2) z || F, | F,2 F, F,2 F, | B,3 B,2 A, | G,2 G, C,2 C, | %32
 F,3 F,2 E, | D,2 D, C,2 C, | (=B,,2 C,) D,2 G,, | C,2 C, A,,2 A,, | G,,6 | C,3- C,2 C, | %38
 F,2 F, A,,2 A,, | B,,2 B,, G,,2 G,, | (C,6 | F,3- F,2) z || F, | F,2 F, F,2 F, | B,3 B,2 A, | %45
 G,2 G, C,2 C, | F,3 F,2 E, | D,2 D, C,2 C, | (=B,,2 C,) D,2 G,, | C,2 C, A,,2 A,, | G,,6 | %51
 C,3- C,2 C, | F,2 F, A,,2 A,, | B,,2 B,, G,,2 G,, | (C,6 | F,3- F,2) z || F, | F,2 F, F,2 F, | %58
 B,3 B,2 A, | G,2 G, C,2 C, | F,3 F,2 E, | D,2 D, C,2 C, | (=B,,2 C,) D,2 G,, | C,2 C, A,,2 A,, | %64
 G,,6 | C,3- C,2 C, | F,2 F, A,,2 A,, | B,,2 B,, G,,2 G,, | (C,6 | F,3- F,2) |] %70

